icon-themes/sifr_svg/cmd/lc_bezierclose.svg

<svg viewBox="0 0 24 24" xmlns="http://www.w3.org/2000/svg"><path d="m2 2v6h2v8h-2v6h6v-3.382812l8-4v.382812h6v-6h-6v.3828125l-8-4v-3.3828125zm2 2h2v2h-2zm4 3.6171875 8 4.0000005v.765624l-8 4v-.382812h-2v-8h2zm10 3.3828125h2v2h-2zm-14 7h2v2h-2z" fill="#555753"/></svg>

<svg xmlns="http://www.w3.org/2000/svg" viewBox="0 0 24 24">
  <path
     style="fill:#555753"
     d="M 2 2 L 2 8 L 4 8 L 4 16 L 2 16 L 2 22 L 8 22 L 8 18.617188 L 16 14.617188 L 16 15 L 22 15 L 22 9 L 16 9 L 16 9.3828125 L 8 5.3828125 L 8 2 L 2 2 z M 4 4 L 6 4 L 6 6 L 4 6 L 4 4 z M 8 7.6171875 L 16 11.617188 L 16 12.382812 L 8 16.382812 L 8 16 L 6 16 L 6 8 L 8 8 L 8 7.6171875 z M 18 11 L 20 11 L 20 13 L 18 13 L 18 11 z M 4 18 L 6 18 L 6 20 L 4 20 L 4 18 z "
     />
</svg>
